!!!COM: Henri Reber
!!!CNT: Francais
!!!TXO: Francais
!!!OTL: Regrets
!!!LYR: [Queen] Marie Stuart
!!!ODT: 1863/
!!!ENC: Jacob Pegg
!!!YOR: Romantic French Song 1830-1870, David Tunley, ed., New York: Garland Publishing, Inc., 1995, vol. 3
!!NB: Vocal melody and text only encoded.
!!NB: First instance of melodic material only encoded.
**kern	**silbe
*clef G2	*
*k[f#]	*
*M3/4	*
=1	=1
4r	.
{4g	{Si
4a	en
=2	=2
4b	quel-
8cc	-que
8b	se/-
[4dd	-jour,
=3	=3
8dd]}	|}
8r	.
{4b	{soyt
4a	en
=4	=4
4g	boys
8a	ou
8g	en
4a}	pre/s,}
=5	=5
4r	.
{4g	{Soyt
4a	a\
=6	=6
4b	l'au-
8cc	-be
8dd	du
4ee	jour,
=7	=7
4dd	Ou
4.b	soyt
8g	sur
=8	=8
8b	la
8a	ves-
(4a	pre/-
4g)}	e,}
=9	=9
4r	.
{4a	{Sans
8b	ces-
8b	-se
=10	=10
4g	mon
(8a	coeur
8b)	|
[4cc	sent
=11	=11
4cc]	|
4a	Le
4b	re-
=12	=12
4g	-gret
8a	d'ung
8b	ab-
4cc}	-sent;}
=13	=13
4r	.
{4b	{Si
4b	je
=14	=14
4b	suis
8b	en
8cc	re-
4b	-pos
=15	=15
8a	Som-
8a	-meil-
4a	-lant
8b	sur
8a	ma
=16	=16
2a	cou-
4a}	-che,}
=17	=17
{4a	{J'oy
4b	qu'il
4cc	me
=18	=18
8dd	tient
8ee	pro-
4.dd}	-pos,}
8r	.
=19	=19
{8b	{Je
8cc#	le
4a	sens
8a	qui
8b	me
=20	=20
(4a	tou-
4d)}	-che.}
4r	.
=21	=21
2.r	.
=22	=22
2.r	.
=23	=23
{4b	{En
4cc#	la-
4dd	-beur,
=24	=24
(4cc#	en-
8b)	|
8a#	re-
4b}	coy,}
=25	=25
2.r	.
=26	=26
2.r	.
=27	=27
{4b	{Tou-
4cc#	-jours
4dd	est
=28	=28
(4cc#	pre\s
8b)	|
8a#	de
4b	moy
=29	=29
(8b	Tou-
8cc#)	|
4b}	-jours,}
4r	.
=30	=30
{(8b	{tou-
8cc#)	|
4b	-jours
4f#	est
=31	=31
2f#	pre\s
(8b	de
8cc#)	|
=32	=32
2dd}	moy.}
4r	.
=33	=33
{(8cc#	{Tou-
8dd)	|
4.cc#}	-jours,}
8r	.
=34	=34
{(8cc#	{tou-
8dd)	|
4cc#}	-jours,}
8r	.
{8cc#	{tou-
=35	=35
8b	-jours
8cc#	est
4dd	pre\s
4cc#	de
=36	=36
2b}	moy.}
4r	.
=37	=37
4r	.
{4b	{Si
4ccn	en
=38	=38
4a	quel-
8b	-que
8cc	se/-
[4dd	-jour
=39	=39
8dd]}	|}
8r	.
{4b	{Soyt
4a	en
=40	=40
4g	boys
8a	ou
8g	en
4a}	pre/s,}
=41	=41
4r	.
{4g	{Soyt
4a	a\
=42	=42
4b	l'au-
8cc	-be
8dd	du
4ee	jour
=43	=43
4dd	ou
4.b	soyt
8g	sur
=44	=44
8b	la
8a	ves-
(4a	-pre/-
4g)}	-e,}
=45	=45
2.r	.
=46	=46
{4dd	{Tou-
[4dd	-jours,
8dd]}	|}
8r	.
=47	=47
{4b	{tou-
4b	-jours
4a	est
=48	=48
8g	pre\s
8a	de
2b}	moy}
=49	=49
2.r	.
=50	=50
{4dd	{Tou-
[4dd	-jours,
8dd]}	|}
8r	.
=51	=51
{4b	{tou-
4b	-jours
4a	est
=52	=52
8g	pre\s
8a	de
4.g}	moy,}
8r	.
=53	=53
{2g	{pre\s
4g	de
=54	=54
2.b}	moy.}
*-	*-
